src/next/cmd/lc_printersetup.svg

<svg height="24" viewBox="0 0 24 24" width="24" xmlns="http://www.w3.org/2000/svg" xmlns:xlink="http://www.w3.org/1999/xlink"><linearGradient id="a" gradientUnits="userSpaceOnUse" x1="98.9077" x2="98.9077" y1="46.5466" y2="162.9086"><stop offset="0" stop-color="#99999c"/><stop offset=".5" stop-color="#9c9ca1"/><stop offset="1" stop-color="#cdcdd1"/></linearGradient><linearGradient id="b" gradientUnits="userSpaceOnUse" x1="78.610847" x2="120.3435" y1="88.852417" y2="111.54715"><stop offset="0" stop-color="#fff"/><stop offset="1" stop-color="#ccc"/></linearGradient><linearGradient id="c" gradientUnits="userSpaceOnUse" x1="88.38102" x2="130.48599" y1="1008.9966" y2="1015.6953"><stop offset="0" stop-color="#7b7b7b"/><stop offset="1" stop-color="#797979" stop-opacity="0"/></linearGradient><clipPath id="d"><path d="m41.355614 933.74432h83.943996v117.52168h-83.943996z"/></clipPath><filter id="e" color-interpolation-filters="sRGB" height="1.073732" width="1.13754" x="-.06877" y="-.036866"><feGaussianBlur stdDeviation="1.0557314"/></filter><linearGradient id="f" gradientUnits="userSpaceOnUse" x1="100.83452" x2="116.42799" y1="37.992622" y2="80.92411"><stop offset="0" stop-color="#fff" stop-opacity=".683453"/><stop offset="1" stop-color="#fff" stop-opacity="0"/></linearGradient><linearGradient id="g" gradientTransform="matrix(.58291629 0 0 .66676377 62.177025 -566.68964)" gradientUnits="userSpaceOnUse" x1="63.011921" x2="63.011921" y1="945.89801" y2="1033.1569"><stop offset="0" stop-color="#545454" stop-opacity=".988"/><stop offset="1" stop-color="#ebebeb"/></linearGradient><linearGradient id="h" gradientTransform="matrix(.48045402 0 0 .66178602 128.73476 -578.51587)" gradientUnits="userSpaceOnUse" x1="-60.535713" x2="-60.357143" y1="979.50507" y2="1009.505"><stop offset="0" stop-color="#979797"/><stop offset=".148461" stop-color="#f6f6f6"/><stop offset=".28399727" stop-color="#e2e2e2"/><stop offset=".41198727" stop-color="#dedede"/><stop offset=".41198727" stop-color="#f6f6f6"/><stop offset="1" stop-color="#6b6b6b"/></linearGradient><linearGradient id="i" gradientTransform="matrix(.480454 0 0 .58309338 128.76683 499.76645)" gradientUnits="userSpaceOnUse" x1="-61.078979" x2="-60.6413" y1="-1056.658" y2="-1010.9131"><stop offset="0" stop-color="#777"/><stop offset=".18176934" stop-color="#a8a8a8"/><stop offset=".22864534" stop-color="#cdcdcd"/><stop offset=".34561315" stop-color="#f7f7f7"/><stop offset="1" stop-color="#fff"/></linearGradient><linearGradient id="j" gradientUnits="userSpaceOnUse" x1="68" x2="68" y1="4" y2="48"><stop offset="0" stop-color="#fff"/><stop offset=".54545456" stop-color="#ebebeb"/><stop offset=".90909094" stop-color="#bababa"/><stop offset="1" stop-color="#7e7e7f"/></linearGradient><linearGradient id="k" gradientTransform="matrix(.90905844 0 0 1 6.009307 .000007)" gradientUnits="userSpaceOnUse" x1="64" x2="64" y1="48" y2="72"><stop offset="0" stop-color="#6e4388"/><stop offset=".21062189" stop-color="#651d8d"/><stop offset=".5" stop-color="#ac7ec6"/><stop offset=".66666639" stop-color="#ca87dc"/><stop offset="1" stop-color="#ebeaeb"/></linearGradient><linearGradient id="l" gradientTransform="matrix(1 0 0 1.1111111 0 -5.777778)" gradientUnits="userSpaceOnUse" x1="64" x2="64" y1="88" y2="56"><stop offset="0" stop-color="#7f7f81"/><stop offset=".44999999" stop-color="#b6b6b7"/><stop offset=".67499995" stop-color="#f5f5f5"/><stop offset="1" stop-color="#cfcfcf"/></linearGradient><linearGradient id="m" gradientTransform="matrix(1 0 0 .62584105 0 25.44281)" gradientUnits="userSpaceOnUse" x1="52" x2="76" y1="72" y2="72"><stop offset="0"/><stop offset=".66666669" stop-color="#a6a6a6" stop-opacity=".866667"/><stop offset="1" stop-opacity=".737089"/></linearGradient><linearGradient id="n" gradientUnits="userSpaceOnUse" x1="68" x2="67.435677" y1="120" y2="93.627121"><stop offset="0" stop-color="#fefefe"/><stop offset=".5" stop-color="#f7f7f7"/><stop offset=".91002578" stop-color="#8c8c8c"/><stop offset="1" stop-color="#666"/></linearGradient><linearGradient id="o" gradientUnits="userSpaceOnUse" x1="64.254234" x2="64.254234" y1="44" y2="64"><stop offset="0" stop-color="#baaac4"/><stop offset="1" stop-color="#baaac4" stop-opacity="0"/></linearGradient><linearGradient id="p" gradientUnits="userSpaceOnUse" x1="64" x2="64" y1="96" y2="48"><stop offset="0" stop-color="#0b0b0b"/><stop offset="1" stop-color="#1d1d1d"/></linearGradient><g transform="matrix(.171875625 0 0 .171875625 1.000075 1.999706125)"><rect height="4.037014" rx=".206393" ry=".409933" width="88" x="20" y="112"/><rect fill="#1d1d1d" height="23.272627" rx="8" transform="scale(1 -1)" width="127.99944" x="-.000399" y="-64.001472"/><rect fill="url(#p)" height="46.545258" rx=".222269" ry=".304689" width="127.99944" x="-.000399" y="52.365158"/><rect fill="#b6b6b6" height="17.45447" rx="7.428572" ry="8" transform="scale(1 -1)" width="116.36314" x="5.817758" y="-58.183315"/><rect fill="url(#l)" height="40.727097" rx=".206393" ry=".27699" width="116.36314" x="5.817758" y="52.365158"/><rect fill="#111012" height="34.908543" rx=".206393" ry=".298754" width="81.453568" x="23.272228" y="11.638058"/><rect fill="#3e3c41" height="30.229706" rx=".18346" ry=".249291" width="69.817314" x="29.090385" y="17.456215"/><rect fill="#28232c" height="15.2715" rx=".208005" ry=".274643" width="93.179428" x="17.4543" y="40.7285"/><rect fill="#9f9f9f" fill-opacity=".996078" height="58.181114" rx=".240792" ry=".294617" width="58.181057" x="34.908543" y="-5.816414"/><rect fill="url(#j)" height="46.544857" rx=".206393" ry=".249291" width="46.5448" x="40.7267" y=".001743"/><path d="m20.3781 40.835999h87.6219c.10394 0 .18762.155157.18762.347885v16.468231c0 .192728-.12556.264562-.18762.347885l-7.44861 9.999997.36376 5.999998h-73.452206l.363766-5.999998-7.44861-9.999997c-.06776-.09097-.187624-.155157-.187624-.347885v-16.468231c0-.192728.08368-.347885.187624-.347885z" style="stroke:#1f1f1f;stroke-width:3;stroke-linecap:square;stroke-linejoin:round;stroke-opacity:.924883;fill:url(#k)"/><g fill-rule="evenodd"><path d="m22 92-2 20h88l-2-20z" fill="#424245"/><path d="m29.938517 92.01838-4.311398 28.59179h77.605171l-4.311402-28.59179z" fill="#434343"/><path d="m32.019511 92.01838-3.997561 25.99714h71.9561l-3.997561-25.99714z" fill="url(#n)"/></g><rect height="8.546765" rx=".206393" ry=".266329" width="72" x="28" y="84.001602"/><rect fill="url(#m)" height="7.421373" rx=".206393" ry=".156017" width="23.2724" x="52.3629" y="68.215729"/><rect fill="url(#o)" height="23.2724" opacity=".92" rx=".30959" ry="1.007805" width="46.5448" x="40.7267" y="40.7285"/><rect fill="#986aae" height="15.118958" rx=".281181" ry=".640315" width="45.170921" x="42.100578" y="40.7285"/><rect fill="#c9b1d5" height="11.6362" rx=".257991" ry=".525472" width="40.775043" x="43.841286" y="40.7285"/><rect fill="#1d1d1d" height="5.8181" rx=".257991" ry=".266553" width="34.9077" x="46.5457" y="40.7285"/><path d="m28 84-.537056-10.000005h73.452206l-.91515 10.000005z" fill="#545156" fill-rule="evenodd"/></g><g transform="matrix(.17187486938 0 0 .17187486938 1.000006375 .9964005625)"><path d="m69.8172 46.546616h58.181v81.453444h-58.181z" fill="url(#a)"/><path d="m75.6353 52.3647h46.5448v69.81722h-46.5448z" fill="url(#b)"/><path clip-path="url(#d)" d="m92.81509 1029.6319c1.071428 1.4286 10.71429 15.3572 11.78571 13.5715 1.07143-1.7858 26.42857-25.3572 25-26.7858-1.42857-1.4285-33.928567-41.78567-33.928567-41.78567z" fill="url(#c)" fill-rule="evenodd" filter="url(#e)" opacity=".68" transform="matrix(.69309305 0 0 .69309305 41.153912 -600.6251)"/><path d="m75.6353 52.3647v47.28063c14.171661-16.500095 33.53848-23.157342 46.54439-25.022283v-22.257813z" fill="url(#f)" fill-rule="evenodd"/><path d="m87.2715 64.0009h23.2724v46.5448h-23.2724z" fill="url(#g)"/><path d="m89.925598 66.798828h17.686732v41.164682h-17.686732z" fill="#535353"/><path d="m93.0896 69.819h11.6362v17.4543h-11.6362z" fill="url(#h)"/><path d="m93.0896-116.3638h11.6362v29.0905h-11.6362z" fill="url(#i)" transform="scale(1 -1)"/></g></svg>

<?xml version="1.0" encoding="UTF-8" standalone="no"?>
<svg
   xmlns:dc="http://purl.org/dc/elements/1.1/"
   xmlns:cc="http://creativecommons.org/ns#"
   xmlns:rdf="http://www.w3.org/1999/02/22-rdf-syntax-ns#"
   xmlns:svg="http://www.w3.org/2000/svg"
   xmlns="http://www.w3.org/2000/svg"
   xmlns:sodipodi="http://sodipodi.sourceforge.net/DTD/sodipodi-0.dtd"
   xmlns:inkscape="http://www.inkscape.org/namespaces/inkscape"
   height="24"
   viewBox="0 0 24 24"
   width="24"
   version="1.1"
   id="svg101"
   sodipodi:docname="lc_printersetup.svg"
   inkscape:version="0.92.4 (unknown)"
   inkscape:export-filename="/home/rizmut/Dokumen/Rizmut/Github/libreoffice-style-karasa-jaga/build/next/cmd/lc_printersetup.png"
   inkscape:export-xdpi="18"
   inkscape:export-ydpi="18">
  <metadata
     id="metadata107">
    <rdf:RDF>
      <cc:Work
         rdf:about="">
        <dc:format>image/svg+xml</dc:format>
        <dc:type
           rdf:resource="http://purl.org/dc/dcmitype/StillImage" />
        <dc:title></dc:title>
      </cc:Work>
    </rdf:RDF>
  </metadata>
  <defs
     id="defs105">
    <linearGradient
       id="a-4"
       gradientUnits="userSpaceOnUse"
       x1="98.9077"
       x2="98.9077"
       y1="46.5466"
       y2="162.9086">
      <stop
         offset="0"
         stop-color="#99999c"
         id="stop23494" />
      <stop
         offset=".5"
         stop-color="#9c9ca1"
         id="stop23496" />
      <stop
         offset="1"
         stop-color="#cdcdd1"
         id="stop23498" />
    </linearGradient>
    <linearGradient
       id="b-6"
       gradientUnits="userSpaceOnUse"
       x1="78.610847"
       x2="120.3435"
       y1="88.852417"
       y2="111.54715">
      <stop
         offset="0"
         stop-color="#fff"
         id="stop23501" />
      <stop
         offset="1"
         stop-color="#ccc"
         id="stop23503" />
    </linearGradient>
    <linearGradient
       id="c-9"
       gradientUnits="userSpaceOnUse"
       x1="88.38102"
       x2="130.48599"
       y1="1008.9966"
       y2="1015.6953">
      <stop
         offset="0"
         stop-color="#7b7b7b"
         id="stop23506" />
      <stop
         offset="1"
         stop-color="#797979"
         stop-opacity="0"
         id="stop23508" />
    </linearGradient>
    <clipPath
       id="d-4">
      <path
         inkscape:connector-curvature="0"
         d="M 41.355614,933.74432 H 125.29961 V 1051.266 H 41.355614 Z"
         id="path23511" />
    </clipPath>
    <filter
       style="color-interpolation-filters:sRGB"
       id="e-2"
       height="1.073732"
       width="1.13754"
       x="-0.068769999"
       y="-0.036866002">
      <feGaussianBlur
         stdDeviation="1.0557314"
         id="feGaussianBlur23514" />
    </filter>
    <linearGradient
       id="f-2"
       gradientUnits="userSpaceOnUse"
       x1="100.83452"
       x2="116.42799"
       y1="37.992622"
       y2="80.92411">
      <stop
         offset="0"
         stop-color="#fff"
         stop-opacity=".683453"
         id="stop23517" />
      <stop
         offset="1"
         stop-color="#fff"
         stop-opacity="0"
         id="stop23519" />
    </linearGradient>
    <linearGradient
       id="g-6"
       gradientTransform="matrix(0.58291629,0,0,0.66676377,62.177025,-566.68964)"
       gradientUnits="userSpaceOnUse"
       x1="63.011921"
       x2="63.011921"
       y1="945.89801"
       y2="1033.1569">
      <stop
         offset="0"
         stop-color="#545454"
         stop-opacity=".988"
         id="stop23522" />
      <stop
         offset="1"
         stop-color="#ebebeb"
         id="stop23524" />
    </linearGradient>
    <linearGradient
       id="h"
       gradientTransform="matrix(0.48045402,0,0,0.66178602,128.73476,-578.51587)"
       gradientUnits="userSpaceOnUse"
       x1="-60.535713"
       x2="-60.357143"
       y1="979.50507"
       y2="1009.505">
      <stop
         offset="0"
         stop-color="#979797"
         id="stop23527" />
      <stop
         offset=".148461"
         stop-color="#f6f6f6"
         id="stop23529" />
      <stop
         offset=".28399727"
         stop-color="#e2e2e2"
         id="stop23531" />
      <stop
         offset=".41198727"
         stop-color="#dedede"
         id="stop23533" />
      <stop
         offset=".41198727"
         stop-color="#f6f6f6"
         id="stop23535" />
      <stop
         offset="1"
         stop-color="#6b6b6b"
         id="stop23537" />
    </linearGradient>
    <linearGradient
       id="i"
       gradientTransform="matrix(0.480454,0,0,0.58309338,128.76683,499.76645)"
       gradientUnits="userSpaceOnUse"
       x1="-61.078979"
       x2="-60.6413"
       y1="-1056.658"
       y2="-1010.9131">
      <stop
         offset="0"
         stop-color="#777"
         id="stop23540" />
      <stop
         offset=".18176934"
         stop-color="#a8a8a8"
         id="stop23542" />
      <stop
         offset=".22864534"
         stop-color="#cdcdcd"
         id="stop23544" />
      <stop
         offset=".34561315"
         stop-color="#f7f7f7"
         id="stop23546" />
      <stop
         offset="1"
         stop-color="#fff"
         id="stop23548" />
    </linearGradient>
  </defs>
  <sodipodi:namedview
     pagecolor="#ffffff"
     bordercolor="#666666"
     borderopacity="1"
     objecttolerance="10"
     gridtolerance="10"
     guidetolerance="10"
     inkscape:pageopacity="0"
     inkscape:pageshadow="2"
     inkscape:window-width="1366"
     inkscape:window-height="714"
     id="namedview103"
     showgrid="true"
     inkscape:zoom="3.6875"
     inkscape:cx="-1.9142949"
     inkscape:cy="15.999632"
     inkscape:window-x="0"
     inkscape:window-y="28"
     inkscape:window-maximized="1"
     inkscape:current-layer="g943">
    <inkscape:grid
       type="xygrid"
       id="grid914"
       spacingx="0.5"
       spacingy="0.5" />
  </sodipodi:namedview>
  <linearGradient
     id="a"
     gradientUnits="userSpaceOnUse"
     x1="68"
     x2="68"
     y1="4"
     y2="48">
    <stop
       offset="0"
       stop-color="#fff"
       id="stop2" />
    <stop
       offset=".54545456"
       stop-color="#ebebeb"
       id="stop4" />
    <stop
       offset=".90909094"
       stop-color="#bababa"
       id="stop6" />
    <stop
       offset="1"
       stop-color="#7e7e7f"
       id="stop8" />
  </linearGradient>
  <linearGradient
     id="b"
     gradientTransform="matrix(0.90905844,0,0,1,6.009307,7e-6)"
     gradientUnits="userSpaceOnUse"
     x1="64"
     x2="64"
     y1="48"
     y2="72">
    <stop
       offset="0"
       stop-color="#6e4388"
       id="stop11" />
    <stop
       offset=".21062189"
       stop-color="#651d8d"
       id="stop13" />
    <stop
       offset=".5"
       stop-color="#ac7ec6"
       id="stop15" />
    <stop
       offset=".66666639"
       stop-color="#ca87dc"
       id="stop17" />
    <stop
       offset="1"
       stop-color="#ebeaeb"
       id="stop19" />
  </linearGradient>
  <linearGradient
     id="c"
     gradientTransform="matrix(1,0,0,1.1111111,0,-5.777778)"
     gradientUnits="userSpaceOnUse"
     x1="64"
     x2="64"
     y1="88"
     y2="56">
    <stop
       offset="0"
       stop-color="#7f7f81"
       id="stop22" />
    <stop
       offset=".44999999"
       stop-color="#b6b6b7"
       id="stop24" />
    <stop
       offset=".67499995"
       stop-color="#f5f5f5"
       id="stop26" />
    <stop
       offset="1"
       stop-color="#cfcfcf"
       id="stop28" />
  </linearGradient>
  <linearGradient
     id="d"
     gradientTransform="matrix(1,0,0,0.62584105,0,25.44281)"
     gradientUnits="userSpaceOnUse"
     x1="52"
     x2="76"
     y1="72"
     y2="72">
    <stop
       offset="0"
       id="stop31" />
    <stop
       offset=".66666669"
       stop-color="#a6a6a6"
       stop-opacity=".866667"
       id="stop33" />
    <stop
       offset="1"
       stop-opacity=".737089"
       id="stop35" />
  </linearGradient>
  <linearGradient
     id="e"
     gradientUnits="userSpaceOnUse"
     x1="68"
     x2="67.435677"
     y1="120"
     y2="93.627121">
    <stop
       offset="0"
       stop-color="#fefefe"
       id="stop38" />
    <stop
       offset=".5"
       stop-color="#f7f7f7"
       id="stop40" />
    <stop
       offset=".91002578"
       stop-color="#8c8c8c"
       id="stop42" />
    <stop
       offset="1"
       stop-color="#666"
       id="stop44" />
  </linearGradient>
  <linearGradient
     id="f"
     gradientUnits="userSpaceOnUse"
     x1="64.254234"
     x2="64.254234"
     y1="44"
     y2="64">
    <stop
       offset="0"
       stop-color="#baaac4"
       id="stop47" />
    <stop
       offset="1"
       stop-color="#baaac4"
       stop-opacity="0"
       id="stop49" />
  </linearGradient>
  <linearGradient
     id="g"
     gradientUnits="userSpaceOnUse"
     x1="64"
     x2="64"
     y1="96"
     y2="48">
    <stop
       offset="0"
       stop-color="#0b0b0b"
       id="stop52" />
    <stop
       offset="1"
       stop-color="#1d1d1d"
       id="stop54" />
  </linearGradient>
  <g
     id="g943"
     transform="matrix(0.1875,0,0,0.1875,7.1525574e-6,-7.8474422e-6)">
    <g
       transform="matrix(0.91667,0,0,0.91667,5.3336961,10.665142)"
       id="g938">
      <rect
         height="4.037014"
         rx="0.206393"
         ry="0.409933"
         width="88"
         x="20"
         y="112"
         id="rect57" />
      <rect
         style="fill:#1d1d1d"
         height="23.272627"
         rx="8"
         transform="scale(1,-1)"
         width="127.99944"
         x="-0.00039938037"
         y="-64.001472"
         id="rect59" />
      <rect
         style="fill:url(#g)"
         height="46.545258"
         rx="0.222269"
         ry="0.30468899"
         width="127.99944"
         x="-0.00039938037"
         y="52.365158"
         id="rect61" />
      <rect
         style="fill:#b6b6b6"
         height="17.45447"
         rx="7.4285722"
         ry="8"
         transform="scale(1,-1)"
         width="116.36314"
         x="5.8177576"
         y="-58.183315"
         id="rect63" />
      <rect
         style="fill:url(#c)"
         height="40.727097"
         rx="0.206393"
         ry="0.27699"
         width="116.36314"
         x="5.8177576"
         y="52.365158"
         id="rect65" />
      <rect
         style="fill:#111012"
         height="34.908543"
         rx="0.206393"
         ry="0.29875401"
         width="81.453568"
         x="23.272228"
         y="11.638058"
         id="rect67" />
      <rect
         style="fill:#3e3c41"
         height="30.229706"
         rx="0.18346"
         ry="0.249291"
         width="69.817314"
         x="29.090385"
         y="17.456215"
         id="rect69" />
      <rect
         style="fill:#28232c"
         height="15.2715"
         rx="0.208005"
         ry="0.274643"
         width="93.179428"
         x="17.4543"
         y="40.7285"
         id="rect71" />
      <rect
         style="fill:#9f9f9f;fill-opacity:0.99607801"
         height="58.181114"
         rx="0.24079201"
         ry="0.294617"
         width="58.181057"
         x="34.908543"
         y="-5.8164139"
         id="rect73" />
      <rect
         style="fill:url(#a)"
         height="46.544857"
         rx="0.206393"
         ry="0.249291"
         width="46.5448"
         x="40.7267"
         y="0.0017432664"
         id="rect75" />
      <path
         inkscape:connector-curvature="0"
         d="M 20.3781,40.835999 H 108 c 0.10394,0 0.18762,0.155157 0.18762,0.347885 v 16.468231 c 0,0.192728 -0.12556,0.264562 -0.18762,0.347885 l -7.44861,9.999997 0.36376,5.999998 H 27.462944 L 27.82671,67.999997 20.3781,58 C 20.31034,57.90903 20.190476,57.844843 20.190476,57.652115 V 41.183884 c 0,-0.192728 0.08368,-0.347885 0.187624,-0.347885 z"
         style="fill:url(#b);stroke:#1f1f1f;stroke-width:3;stroke-linecap:square;stroke-linejoin:round;stroke-opacity:0.92488302"
         id="path77" />
      <g
         style="fill-rule:evenodd"
         id="g85">
        <path
           style="fill:#424245"
           inkscape:connector-curvature="0"
           d="m 22,92 -2,20 h 88 l -2,-20 z"
           id="path79" />
        <path
           style="fill:#434343"
           inkscape:connector-curvature="0"
           d="m 29.938517,92.01838 -4.311398,28.59179 H 103.23229 L 98.920888,92.01838 Z"
           id="path81" />
        <path
           inkscape:connector-curvature="0"
           style="fill:url(#e)"
           d="m 32.019511,92.01838 -3.997561,25.99714 h 71.9561 L 95.980489,92.01838 Z"
           id="path83" />
      </g>
      <rect
         height="8.5467653"
         rx="0.206393"
         ry="0.26632899"
         width="72"
         x="28"
         y="84.001602"
         id="rect87" />
      <rect
         style="fill:url(#d)"
         height="7.4213729"
         rx="0.206393"
         ry="0.15601701"
         width="23.2724"
         x="52.3629"
         y="68.215729"
         id="rect89" />
      <rect
         style="opacity:0.92000002;fill:url(#f)"
         height="23.2724"
         rx="0.30959001"
         ry="1.007805"
         width="46.5448"
         x="40.7267"
         y="40.7285"
         id="rect91" />
      <rect
         style="fill:#986aae"
         height="15.118958"
         rx="0.28118101"
         ry="0.640315"
         width="45.170921"
         x="42.100578"
         y="40.7285"
         id="rect93" />
      <rect
         style="fill:#c9b1d5"
         height="11.6362"
         rx="0.25799099"
         ry="0.52547199"
         width="40.775043"
         x="43.841286"
         y="40.7285"
         id="rect95" />
      <rect
         style="fill:#1d1d1d"
         height="5.8181"
         rx="0.25799099"
         ry="0.26655301"
         width="34.9077"
         x="46.5457"
         y="40.7285"
         id="rect97" />
      <path
         style="fill:#545156;fill-rule:evenodd"
         inkscape:connector-curvature="0"
         d="M 28,84 27.462944,73.999995 H 100.91515 L 100,84 Z"
         id="path99" />
    </g>
    <g
       id="g23583"
       transform="matrix(0.91666597,0,0,0.91666597,5.3333296,5.3141791)">
      <path
         id="path23567"
         d="m 69.8172,46.546616 h 58.181 v 81.453444 h -58.181 z"
         style="fill:url(#a-4)"
         inkscape:connector-curvature="0" />
      <path
         id="path23569"
         d="m 75.6353,52.3647 h 46.5448 v 69.81722 H 75.6353 Z"
         style="fill:url(#b-6)"
         inkscape:connector-curvature="0" />
      <path
         id="path23571"
         transform="matrix(0.69309305,0,0,0.69309305,41.153912,-600.6251)"
         d="m 92.81509,1029.6319 c 1.071428,1.4286 10.71429,15.3572 11.78571,13.5715 1.07143,-1.7858 26.42857,-25.3572 25,-26.7858 -1.42857,-1.4285 -33.928567,-41.78567 -33.928567,-41.78567 z"
         clip-path="url(#d-4)"
         style="opacity:0.68000034;fill:url(#c-9);fill-rule:evenodd;filter:url(#e-2)"
         inkscape:connector-curvature="0" />
      <path
         id="path23573"
         d="M 75.6353,52.3647 V 99.64533 C 89.806961,83.145235 109.17378,76.487988 122.17969,74.623047 V 52.365234 Z"
         style="fill:url(#f-2);fill-rule:evenodd"
         inkscape:connector-curvature="0" />
      <path
         id="path23575"
         d="m 87.2715,64.0009 h 23.2724 v 46.5448 H 87.2715 Z"
         style="fill:url(#g-6)"
         inkscape:connector-curvature="0" />
      <path
         id="path23577"
         d="M 89.925598,66.798828 H 107.61233 V 107.96351 H 89.925598 Z"
         inkscape:connector-curvature="0"
         style="fill:#535353" />
      <path
         id="path23579"
         d="m 93.0896,69.819 h 11.6362 V 87.2733 H 93.0896 Z"
         style="fill:url(#h)"
         inkscape:connector-curvature="0" />
      <path
         id="path23581"
         transform="scale(1,-1)"
         d="m 93.0896,-116.3638 h 11.6362 v 29.0905 H 93.0896 Z"
         style="fill:url(#i)"
         inkscape:connector-curvature="0" />
    </g>
  </g>
</svg>
